X:1
T:F Major French Psalter, 1560
T:William Kethe, 1561 88. 888.
T:Psalm 36 No copyright. Transcribed from The Scottish Psalter, 1635.
%%score [ 1 2 3 4 ]
L:1/8
M:6/4
K:C
V:1 treble nm="Treble" snm="Tr."
V:2 treble nm="Counter" snm="C."
V:3 treble-8 nm="Tenor" snm="T."
V:4 bass nm="Bass" snm="B."
V:1
 c4 d2 d2 e4 | f4 e2 d2 c4 || c4 d2 e2 f2 e2 | e2 (d4 ^c2) d4 || f4 g2 a2 a2 a2 | (a2 g4) ^f2 g4 || %6
w: 1.~The wick- ed deeds|of the ill man,|Un- to my heart do|wit- ness * plain:|That fear of God in|him * is none,|
w: 2.~His mouth is bent|to vile de- ceit,|With ig- no- rance he|is re- * plete;|And to do good he|hath * no will.|
 c4 B2 c2 A4 | G4 (E A2) G A4 || c4 B4 B4 |[M:10/4] a2 e2 e4 d4 ^c8 |] %10
w: Though he him- self|would flat- * ter fain:|His wic- ked-|ness is judged and known.|
w: In bed he doth|for mis- * chief wait,|Full bent to|seek the way most ill.|
V:2
 A4 A2 A2 c4 | c4 c2 A2 A4 || A4 A2 c2 A2 A2 | A4 A4 F4 || d4 d2 f2 f2 f2 | d4 d4 B4 || %6
w: 3.~Thy mer- cies, Lord,|to hea- ven reach,|Thy faith- ful- ness the|clouds do preach:|Thy right- eous- ness as|moun- tains huge,|
w: 4.~O God! How great|Thy mer- cies be!|The sons of men do|trust in Thee:|With Thee they shall be|ful- ly fed;|
 e4 e2 e2 c4 | e4 e2 e2 c4 || e4 d4 d4 |[M:10/4] A2 c2 c4 A4 A8 |] %10
w: Thy judg- ments deep|no tongue can teach,|To man and|beast Thou art re- fuge.|
w: And Thou wilt give|them drink full free|Of plea- sant|ri- vers large- ly spread.|
V:3
 E4 D2 F2 E4 | A4 G2 F2 E4 || E4 F2 E2 D2 C2 | F4 E4 D4 || A4 B2 c2 A2 c2 | B4 A4 G4 || %6
w: 5.~The well of life|is Thine by right:|Thy bright- ness doth give|us our light;|Thy fa- vor, Lord, to|such ex- tend|
w: 6.~Let not the proud,|O Lord, pre- vail:|Nor vain men's power make|me to quail:|But lo, they fail in|their de- vice;|
 E4 G2 G2 A4 | B4 c2 B2 A4 || E4 G4 D4 |[M:10/4] F2 E2 G4 F4 E8 |] %10
w: As know- ledge Thee|with heart up- right,|Thy right- eous-|ness to such men lend.|
w: They mis- chief work|with tooth and nail,|And fall, but|can by no means rise.|
V:4
 A,,4 D,2 D,2 C,4 | F,4 C,2 D,2 A,,4 || A,,4 D,2 C,2 D,2 A,,2 | (F,,2 D,,2) A,,4 D,,4 || %4
 D,4 G,2 F,2 F,2 F,2 | G,4 D,4 G,,4 || C,4 E,2 C,2 F,4 | E,4 C,>D, E,2 A,,4 || C,4 G,,4 G,,4 | %9
[M:10/4] D,2 C,2 C,4 D,4 A,,8 |] %10

